src/assets/why_chose_us_3.svg

<svg width="60" height="50" viewBox="0 0 60 50" fill="none" xmlns="http://www.w3.org/2000/svg">
<path d="M59.9873 13.4459C59.9869 12.42 59.5834 11.5152 58.8205 10.8296L49.7005 2.63164C48.5661 1.61223 47.1359 0.570312 45.1249 0.570312C45.1243 0.570312 45.1234 0.570312 45.1228 0.570312C43.1106 0.571016 41.6802 1.61434 40.5464 2.63492L31.4323 10.8391C30.6697 11.5254 30.267 12.4305 30.2673 13.4565L30.2715 23.9858H24.2187C25.3141 21.7108 26.0771 18.1171 25.2203 15.4262C24.6172 13.5323 23.2891 12.2838 21.3797 11.8155C21.1359 11.7556 20.8785 11.7962 20.6648 11.9278C20.4512 12.0593 20.2992 12.2711 20.2429 12.5156C20.1389 12.9671 20.0427 13.3904 19.9523 13.7882C18.8263 18.7469 18.6816 19.3842 15.5713 21.417C13.374 22.8532 13.218 23.0386 11.8515 25.0321C11.712 25.2358 11.558 25.4604 11.3856 25.7097C10.8322 26.5101 10.1243 26.8711 9.09551 26.8801L9.01617 26.8803V26.6558C9.01617 25.4881 8.06625 24.5382 6.89848 24.5382H2.11758C0.949922 24.5382 0 25.4881 0 26.6558V47.3116C0 48.4794 0.949922 49.4293 2.11758 49.4293H6.89859C8.06625 49.4293 9.01629 48.4794 9.01629 47.3116V46.3507C9.43887 46.4981 9.86133 46.6553 10.2963 46.8178C12.4262 47.6132 14.8402 48.5149 18.4243 48.5149H30.8692C31.3997 48.5149 31.9045 48.4041 32.3629 48.2055C32.8129 48.4079 33.3004 48.5149 33.8002 48.5149H33.801L56.4814 48.507C58.4223 48.5062 60.0007 46.9266 59.9999 44.9858L59.9873 13.4459ZM7.14129 47.3116C7.14129 47.4432 7.0302 47.5543 6.89859 47.5543H2.11758C1.98609 47.5543 1.875 47.4432 1.875 47.3116V26.6558C1.875 26.5243 1.98609 26.4132 2.11758 26.4132H6.89859C7.0302 26.4132 7.14129 26.5243 7.14129 26.6558V47.3116ZM18.4243 46.6399C15.1789 46.6399 13.0303 45.8373 10.9525 45.0612C10.3252 44.827 9.68191 44.5868 9.01641 44.3723V28.7553L9.10676 28.7551C10.7445 28.7408 12.0302 28.0748 12.9281 26.7758C13.102 26.5243 13.2573 26.2978 13.3982 26.0922C14.6584 24.2537 14.6584 24.2537 16.5973 22.9864C20.3422 20.5387 20.6183 19.3224 21.7808 14.2034C21.798 14.1275 21.8155 14.0504 21.8332 13.9725C22.6058 14.3826 23.133 15.0508 23.4338 15.995C24.3183 18.7728 22.9234 23.0493 21.832 24.3095C21.5918 24.5868 21.5355 24.9789 21.688 25.3128C21.8406 25.6467 22.1737 25.8608 22.5408 25.8608H33.2588C34.3032 25.8608 35.153 26.7105 35.153 27.755C35.153 28.7995 34.3032 29.6493 33.2588 29.6493H25.8695C25.3518 29.6493 24.932 30.0691 24.932 30.5868C24.932 31.1046 25.3518 31.5243 25.8695 31.5243H34.8073C35.8518 31.5243 36.7015 32.3741 36.7015 33.4186C36.7015 34.463 35.8518 35.3129 34.8073 35.3129H25.8695C25.3518 35.3129 24.932 35.7327 24.932 36.2504C24.932 36.7681 25.3518 37.1879 25.8695 37.1879H33.8339C34.8784 37.1879 35.7281 38.0376 35.7281 39.0821C35.7281 40.1266 34.8784 40.9763 33.8339 40.9763H25.8695C25.3518 40.9763 24.932 41.3961 24.932 41.9138C24.932 42.4316 25.3518 42.8513 25.8695 42.8513H30.8693C31.9138 42.8513 32.7636 43.7012 32.7636 44.7457C32.7636 45.7902 31.9139 46.6399 30.8693 46.6399H18.4243ZM56.4807 46.632L34.1259 46.6398C34.4511 46.0828 34.6385 45.4359 34.6385 44.7457C34.6385 44.0511 34.4497 43.3999 34.1208 42.8405C36.0656 42.6934 37.6031 41.0639 37.6031 39.0821C37.6031 38.1625 37.2721 37.3188 36.7229 36.6638C37.8315 36.0069 38.5765 34.798 38.5765 33.4186C38.5765 31.8748 37.6436 30.545 36.3121 29.9628C36.7623 29.3418 37.028 28.5789 37.028 27.755C37.028 25.6767 35.3371 23.9858 33.2588 23.9858H32.1466L32.1424 13.4559C32.1423 12.9628 32.3203 12.5627 32.6868 12.2328L41.8009 4.02852C43.0498 2.90434 44.0125 2.44578 45.1236 2.44531H45.125C46.2353 2.44531 47.1981 2.9034 48.4473 4.02605L57.5673 12.224C57.934 12.5537 58.1123 12.9536 58.1126 13.4468L58.125 44.9865C58.1254 45.8935 57.3878 46.6317 56.4807 46.632ZM50.7554 33.945C50.8928 35.0764 50.5895 36.1091 49.8785 36.9311C49.0423 37.8979 47.6527 38.5461 46.0712 38.728V39.9205C46.0712 40.4382 45.6514 40.858 45.1337 40.858C44.616 40.858 44.1962 40.4382 44.1962 39.9205V38.7144C41.8543 38.3926 40.0339 36.9118 39.507 34.798C39.3817 34.2956 39.6874 33.7868 40.1898 33.6615C40.6925 33.537 41.201 33.8421 41.3263 34.3443C41.8119 36.2919 43.7718 36.9417 45.3034 36.9035C46.6185 36.8722 47.8576 36.4017 48.4604 35.7046C48.8263 35.2817 48.9682 34.7799 48.8943 34.1709C48.7193 32.7295 47.5168 31.9021 44.9953 31.4881C40.9823 30.8292 40.0479 28.794 39.9708 27.2028C39.8637 24.9979 41.4073 23.1499 43.8118 22.6045C43.9379 22.576 44.0662 22.5513 44.1964 22.5308V21.3114C44.1964 20.7937 44.6162 20.3739 45.1339 20.3739C45.6517 20.3739 46.0714 20.7937 46.0714 21.3114V22.5228C47.7879 22.777 49.4811 23.7713 50.3271 25.7864C50.5275 26.2637 50.3031 26.8133 49.8257 27.0137C49.3481 27.2143 48.7987 26.9896 48.5984 26.5122C47.7852 24.5756 45.8168 24.0726 44.2266 24.4333C43.0249 24.7058 41.7679 25.5527 41.8437 27.1121C41.8673 27.6004 41.9394 29.0865 45.2992 29.6381C46.5439 29.8422 50.333 30.4644 50.7554 33.945ZM45.126 13.1414C46.9669 13.1414 48.4646 11.6437 48.4646 9.8027C48.4646 7.96168 46.967 6.46402 45.126 6.46402C43.285 6.46402 41.7872 7.96168 41.7872 9.8027C41.7872 11.6437 43.285 13.1414 45.126 13.1414ZM45.126 8.33891C45.933 8.33891 46.5896 8.99562 46.5896 9.80258C46.5896 10.6095 45.933 11.2663 45.126 11.2663C44.3189 11.2663 43.6622 10.6095 43.6622 9.80258C43.6622 8.99562 44.3189 8.33891 45.126 8.33891Z" fill="#FF5500"/>
</svg>

<svg xmlns="http://www.w3.org/2000/svg" width="60" height="50" fill="none" xmlns:v="https://vecta.io/nano"><path d="M59.987 13.446a3.43 3.43 0 0 0-1.167-2.616l-9.12-8.198C48.566 1.612 47.136.57 45.125.57s-3.445 1.044-4.578 2.065l-9.114 8.204a3.43 3.43 0 0 0-1.165 2.617l.004 10.529h-6.053c1.095-2.275 1.858-5.869 1.002-8.56-.603-1.894-1.931-3.142-3.841-3.611-.244-.06-.501-.019-.715.112s-.366.343-.422.588l-.291 1.273c-1.126 4.959-1.271 5.596-4.381 7.629-2.197 1.436-2.353 1.622-3.72 3.615l-.466.678c-.553.8-1.261 1.161-2.29 1.17h-.079v-.224a2.12 2.12 0 0 0-2.118-2.118H2.118A2.12 2.12 0 0 0 0 26.656v20.656a2.12 2.12 0 0 0 2.118 2.118h4.781a2.12 2.12 0 0 0 2.118-2.118v-.961l1.28.467c2.13.795 4.544 1.697 8.128 1.697h12.445a3.75 3.75 0 0 0 1.494-.309c.45.202.938.309 1.437.309h.001l22.68-.008c1.941-.001 3.519-1.58 3.518-3.521l-.013-31.54zM7.141 47.312c0 .132-.111.243-.243.243H2.118c-.131 0-.243-.111-.243-.243V26.656c0-.131.111-.243.243-.243h4.781c.132 0 .243.111.243.243v20.656zm11.283-.672c-3.245 0-5.394-.803-7.472-1.579l-1.936-.689V28.755h.09c1.638-.014 2.923-.68 3.821-1.979l.47-.684c1.26-1.838 1.26-1.838 3.199-3.106 3.745-2.448 4.021-3.664 5.183-8.783l.052-.231c.773.41 1.3 1.078 1.601 2.022.884 2.778-.51 7.054-1.602 8.315a.94.94 0 0 0 .709 1.551h10.718c1.044 0 1.894.85 1.894 1.894s-.85 1.894-1.894 1.894H25.87a.94.94 0 0 0-.937.938.94.94 0 0 0 .938.938h8.938c1.044 0 1.894.85 1.894 1.894s-.85 1.894-1.894 1.894H25.87a.94.94 0 0 0-.937.938.94.94 0 0 0 .938.938h7.964c1.044 0 1.894.85 1.894 1.894s-.85 1.894-1.894 1.894H25.87a.94.94 0 0 0-.937.938.94.94 0 0 0 .938.938h5c1.044 0 1.894.85 1.894 1.894s-.85 1.894-1.894 1.894H18.424zm38.056-.008l-22.355.008c.325-.557.513-1.204.513-1.894s-.189-1.346-.518-1.905c1.945-.147 3.482-1.777 3.482-3.758a3.75 3.75 0 0 0-.88-2.418 3.77 3.77 0 0 0 1.854-3.245c0-1.544-.933-2.874-2.264-3.456a3.75 3.75 0 0 0 .716-2.208c0-2.078-1.691-3.769-3.769-3.769h-1.112l-.004-10.53a1.56 1.56 0 0 1 .544-1.223l9.114-8.204c1.249-1.124 2.212-1.583 3.323-1.583h.001c1.11 0 2.073.458 3.322 1.581l9.12 8.198c.367.33.545.73.545 1.223l.012 31.54c0 .907-.737 1.645-1.644 1.645zm-5.725-12.687c.137 1.131-.166 2.164-.877 2.986-.836.967-2.226 1.615-3.807 1.797v1.192a.94.94 0 0 1-.937.938.94.94 0 0 1-.937-.937v-1.206c-2.342-.322-4.162-1.803-4.689-3.916a.94.94 0 0 1 .683-1.137.94.94 0 0 1 1.137.683c.486 1.948 2.445 2.597 3.977 2.559 1.315-.031 2.554-.502 3.157-1.199.366-.423.508-.925.434-1.534-.175-1.441-1.377-2.269-3.899-2.683-4.013-.659-4.947-2.694-5.025-4.285-.107-2.205 1.437-4.053 3.841-4.598.126-.029.254-.053.385-.074v-1.219a.94.94 0 0 1 .938-.937.94.94 0 0 1 .938.938v1.211c1.717.254 3.41 1.249 4.256 3.264a.94.94 0 0 1-.501 1.227c-.478.201-1.027-.024-1.227-.502-.813-1.937-2.782-2.44-4.372-2.079-1.202.273-2.459 1.119-2.383 2.679.024.488.096 1.974 3.456 2.526 1.245.204 5.034.826 5.456 4.307zm-5.629-20.804c1.841 0 3.339-1.498 3.339-3.339s-1.498-3.339-3.339-3.339-3.339 1.498-3.339 3.339 1.498 3.339 3.339 3.339zm0-4.802c.807 0 1.464.657 1.464 1.464s-.657 1.464-1.464 1.464-1.464-.657-1.464-1.464.657-1.464 1.464-1.464z" fill="#f50"/></svg>
